public/img/home/solutions/icon-solutions-04.svg

<svg fill="none" height="87" viewBox="0 0 109 87" width="109" xmlns="http://www.w3.org/2000/svg"><g fill="#fff"><path d="m66.7083 29.0717c-8.7887-.6874-11.8371-3.0608-12.1557-3.3294l-.0353-.0298-.0319-.0325c-.1111-.1134-.2007-.1287-.2747-.1287-.0741 0-.1636.0153-.2747.1287l-.0319.0325-.0344.0289c-.3186.2687-3.3662 2.6421-12.1567 3.3295-.2239.0179-.3987.2046-.3987.4272v19.0922c0 .0656.0155.1322.0457.191.1765.3514 4.4228 8.6485 12.6621 12.6022.0586.0281.1231.0426.1886.0426.0654 0 .13-.0145.1886-.0426 8.2376-3.9529 12.4856-12.2508 12.6621-12.6013.0301-.0597.0456-.1254.0456-.1911v-19.0921c0-.2217-.1748-.4094-.3987-.4273zm-.4667 19.4188-.1163.2106c-.7276 1.3168-4.7017 8.0643-11.4729 11.5959l-.4417.2302-.4418-.2302c-6.7719-3.5324-10.7452-10.2791-11.4729-11.5959l-.1162-.2106v-18.5907l.8508-.0861c6.2277-.632 9.3631-2.0911 10.678-2.9047l.5021-.3105.502.3105c1.315.8136 4.4504 2.2736 10.6781 2.9047l.8508.0861v18.5898z"/><path d="m59.8278 38.8944c-.0671 0-.1954.0162-.3057.1254l-8.1429 8.0634-2.4783-2.4544c-.1102-.1092-.2394-.1254-.3057-.1254s-.1955.0162-.3057.1254c-.1102.1091-.1266.2371-.1266.3027 0 .0657.0164.1936.1266.3028l2.784 2.7572c.1103.1091.2394.1253.3057.1253s.1955-.0162.3057-.1253l8.4486-8.3671c.1688-.1671.1688-.4392 0-.6055-.1102-.1091-.2385-.1253-.3057-.1253z"/><path d="m96.1454 40.6623c-1.433 0-2.6222 1.0516-2.8237 2.4161h-10.3457l-.0413-.8955c-.1042-2.2813-.4831-4.5412-1.1264-6.7159l-.3548-1.2017h8.7061c.2385 0 .4323-.1919.4323-.4281v-9.9473c1.3675-.2081 2.4189-1.3816 2.4189-2.7939 0-1.5589-1.2805-2.8271-2.8546-2.8271-1.5742 0-2.8547 1.2682-2.8547 2.8271 0 1.414 1.054 2.5892 2.425 2.7947v9.5175h-8.6071l-.2394-.5867c-1.445-3.5392-3.5771-6.7194-6.3371-9.4518-2.5584-2.5338-5.5129-4.5388-8.7835-5.9587l-.5667-.2465v-8.68342h9.817c.1894 1.37731 1.3847 2.44252 2.8271 2.44252 1.5741 0 2.8546-1.26818 2.8546-2.82714s-1.2805-2.82711-2.8546-2.82711c-1.4114 0-2.5852 1.01997-2.8133 2.35379h-10.2631c-.2385 0-.4322.19188-.4322.42812v8.74994l-1.2384-.3965c-2.4301-.7778-4.967-1.2307-7.5418-1.3467l-.9042-.0409v-8.39773c1.3692-.20724 2.4215-1.38158 2.4215-2.7947 0-1.55896-1.2805-2.827111-2.8546-2.827111-1.5742 0-2.8547 1.268151-2.8547 2.827111 0 1.41312 1.0523 2.58746 2.4215 2.7947v8.39773l-.9042.0409c-2.4344.1101-4.8387.5211-7.1448 1.2221l-1.2254.3727v-8.60154c0-.23624-.1937-.42812-.4323-.42812h-9.8083c-.2308-1.33126-1.4037-2.34782-2.8125-2.34782-1.5741 0-2.8546 1.26815-2.8546 2.82711s1.2805 2.82707 2.8546 2.82707c1.4442 0 2.6411-1.06855 2.828-2.44927h9.3597v8.51887l-.5804.2413c-3.4282 1.4285-6.5171 3.4898-9.1806 6.1276-2.7599 2.7333-4.8921 5.9134-6.3371 9.4518l-.2394.5867h-8.1971v-9.8108c1.3795-.1987 2.4422-1.3765 2.4422-2.7973 0-1.559-1.2805-2.8271-2.8547-2.8271s-2.8547 1.2681-2.8547 2.8271c0 1.4063 1.042 2.5747 2.4009 2.7904v10.245c0 .2362.1937.4281.4323.4281h8.2961l-.3547 1.2016c-.6425 2.1756-1.0214 4.4347-1.1264 6.716l-.0413.8955h-9.7645c-.1903-1.3773-1.3855-2.4416-2.8271-2.4416-1.5741 0-2.85462 1.2681-2.85462 2.8271 0 1.5589 1.28052 2.8271 2.85462 2.8271 1.4114 0 2.586-1.02 2.8142-2.3547h9.7774l.0413.8955c.118 2.573.5821 5.1067 1.3795 7.5304l.4039 1.2289h-8.5984c-.2386 0-.4323.1919-.4323.4282v10.3097c-1.3658.2098-2.4146 1.3825-2.4146 2.793 0 1.559 1.2805 2.8271 2.8546 2.8271 1.5742 0 2.8547-1.2681 2.8547-2.8271 0-1.4157-1.0558-2.5909-2.4284-2.7955v-9.8791h8.533l.2497.5594c1.4329 3.2135 3.448 6.119 5.9909 8.6374 2.6635 2.6378 5.7524 4.6999 9.1806 6.1275l.5804.2414v8.2843h-10.1778c-.2075-1.3577-1.3942-2.4024-2.8219-2.4024-1.5742 0-2.8547 1.2682-2.8547 2.8271 0 1.559 1.2805 2.8271 2.8547 2.8271 1.4252 0 2.6101-1.0404 2.8211-2.3938h10.6117c.2386 0 .4323-.1919.4323-.4282v-8.367l1.2254.3727c2.3061.7019 4.7104 1.1129 7.1448 1.2221l.9042.0409v8.385c-1.3692.2072-2.4215 1.3815-2.4215 2.7947 0 1.5589 1.2805 2.8271 2.8547 2.8271 1.5741 0 2.8546-1.2682 2.8546-2.8271 0-1.4132-1.0523-2.5875-2.4215-2.7947v-8.385l.9042-.0409c2.5748-.116 5.1126-.5689 7.5418-1.3466l1.2384-.3966v8.5154c0 .2363.1937.4282.4322.4282h10.7685c.2041 1.3611 1.3925 2.4092 2.8228 2.4092 1.5742 0 2.8547-1.2682 2.8547-2.8271 0-1.559-1.2805-2.8271-2.8547-2.8271-1.4226 0-2.6058 1.0361-2.8193 2.387h-10.3388v-8.4489l.5666-.2465c3.2706-1.4208 6.2252-3.4258 8.7836-5.9595 2.5421-2.5175 4.558-5.4239 5.9909-8.6374l.2497-.5594h8.9438v10.1571c-1.3709.2055-2.4258 1.3807-2.4258 2.7947 0 1.5589 1.2805 2.8271 2.8546 2.8271 1.5742 0 2.8547-1.2682 2.8547-2.8271 0-1.4114-1.0506-2.5849-2.4172-2.7939v-10.5861c0-.2362-.1938-.4281-.4323-.4281h-9.0092l.4039-1.2289c.7974-2.4237 1.2615-4.9574 1.3795-7.5304l.0414-.8955h10.3508c.217 1.3475 1.3976 2.3811 2.8185 2.3811 1.5741 0 2.8547-1.2681 2.8547-2.8271s-1.2806-2.8271-2.8547-2.8271zm-7.981-19.5663c0-1.0882.8938-1.9742 1.9935-1.9742s1.9935.8852 1.9935 1.9742c0 1.0891-.8938 1.9743-1.9935 1.9743s-1.9935-.8852-1.9935-1.9743zm-10.3268-14.97298c1.0988 0 1.9936.88523 1.9936 1.97429 0 1.08905-.8939 1.97429-1.9936 1.97429-1.0996 0-1.9935-.88524-1.9935-1.97429 0-1.08906.8939-1.97429 1.9935-1.97429zm-46.3876 3.95458c-1.0988 0-1.9935-.88527-1.9935-1.97432 0-1.08906.8939-1.97429 1.9935-1.97429 1.0997 0 1.9936.88523 1.9936 1.97429 0 1.08905-.8939 1.97432-1.9936 1.97432zm-14.7503 10.7234c0-1.0882.8938-1.9743 1.9935-1.9743s1.9935.8852 1.9935 1.9743c0 1.089-.8938 1.9742-1.9935 1.9742s-1.9935-.8852-1.9935-1.9742zm-3.845 24.6363c-1.0988 0-1.9935-.8852-1.9935-1.9743 0-1.089.8938-1.9743 1.9935-1.9743s1.9935.8853 1.9935 1.9743c0 1.0891-.8938 1.9743-1.9935 1.9743zm7.8174 21.6839c0 1.0882-.8939 1.9743-1.9936 1.9743-1.0996 0-1.9935-.8853-1.9935-1.9743 0-1.0891.8939-1.9743 1.9935-1.9743 1.0997 0 1.9936.8852 1.9936 1.9743zm9.9667 13.5744c-1.0988 0-1.9935-.8853-1.9935-1.9743 0-1.0891.8939-1.9743 1.9935-1.9743 1.0997 0 1.9936.8852 1.9936 1.9743 0 1.089-.8939 1.9743-1.9936 1.9743zm47.7138-3.9324c1.0988 0 1.9935.8852 1.9935 1.9743 0 1.089-.8938 1.9743-1.9935 1.9743s-1.9935-.8853-1.9935-1.9743c0-1.0891.8938-1.9743 1.9935-1.9743zm13.7971-9.3648c0 1.0882-.8939 1.9742-1.9935 1.9742-1.0997 0-1.9936-.8852-1.9936-1.9742 0-1.0891.8939-1.9743 1.9936-1.9743 1.0996 0 1.9935.8852 1.9935 1.9743zm-39.9317-63.57118c0-1.0882.8939-1.97428 1.9935-1.97428 1.0997 0 1.9936.88523 1.9936 1.97428 0 1.08906-.8939 1.97429-1.9936 1.97429-1.0996 0-1.9935-.88523-1.9935-1.97429zm3.9862 79.34578c0 1.0882-.8938 1.9743-1.9935 1.9743s-1.9935-.8852-1.9935-1.9743c0-1.089.8938-1.9743 1.9935-1.9743s1.9935.8853 1.9935 1.9743zm-1.9935-12.0453c-15.379 0-27.8904-12.3906-27.8904-27.6212 0-15.2305 12.5114-27.6212 27.8904-27.6212s27.8904 12.3907 27.8904 27.6212c0 15.2306-12.5114 27.6212-27.8904 27.6212zm41.9347-25.6648c-1.0988 0-1.9936-.8852-1.9936-1.9743 0-1.089.8939-1.9743 1.9936-1.9743 1.0996 0 1.9935.8853 1.9935 1.9743 0 1.0891-.8939 1.9743-1.9935 1.9743z"/></g></svg>

<svg width="109" height="87" viewBox="0 0 109 87" fill="none" xmlns="http://www.w3.org/2000/svg">
<path d="M66.7083 29.0717C57.9196 28.3843 54.8712 26.0109 54.5526 25.7423L54.5173 25.7125L54.4854 25.68C54.3743 25.5666 54.2847 25.5513 54.2107 25.5513C54.1366 25.5513 54.0471 25.5666 53.936 25.68L53.9041 25.7125L53.8697 25.7414C53.5511 26.0101 50.5035 28.3835 41.713 29.0709C41.4891 29.0888 41.3143 29.2755 41.3143 29.4981V48.5903C41.3143 48.6559 41.3298 48.7225 41.36 48.7813C41.5365 49.1327 45.7828 57.4298 54.0221 61.3835C54.0807 61.4116 54.1452 61.4261 54.2107 61.4261C54.2761 61.4261 54.3407 61.4116 54.3993 61.3835C62.6369 57.4306 66.8849 49.1327 67.0614 48.7822C67.0915 48.7225 67.107 48.6568 67.107 48.5911V29.499C67.107 29.2773 66.9322 29.0896 66.7083 29.0717ZM66.2416 48.4905L66.1253 48.7011C65.3977 50.0179 61.4236 56.7654 54.6524 60.297L54.2107 60.5272L53.7689 60.297C46.997 56.7646 43.0237 50.0179 42.296 48.7011L42.1798 48.4905V29.8998L43.0306 29.8137C49.2583 29.1817 52.3937 27.7226 53.7086 26.909L54.2107 26.5985L54.7127 26.909C56.0277 27.7226 59.1631 29.1826 65.3908 29.8137L66.2416 29.8998V48.4896V48.4905Z" fill="white"/>
<path d="M59.8278 38.8944C59.7607 38.8944 59.6324 38.9106 59.5221 39.0198L51.3792 47.0832L48.9009 44.6288C48.7907 44.5196 48.6615 44.5034 48.5952 44.5034C48.5289 44.5034 48.3997 44.5196 48.2895 44.6288C48.1793 44.7379 48.1629 44.8659 48.1629 44.9315C48.1629 44.9972 48.1793 45.1251 48.2895 45.2343L51.0735 47.9915C51.1838 48.1006 51.3129 48.1168 51.3792 48.1168C51.4455 48.1168 51.5747 48.1006 51.6849 47.9915L60.1335 39.6244C60.3023 39.4573 60.3023 39.1852 60.1335 39.0189C60.0233 38.9098 59.895 38.8936 59.8278 38.8936V38.8944Z" fill="white"/>
<path d="M96.1454 40.6623C94.7124 40.6623 93.5232 41.7139 93.3217 43.0784H82.976L82.9347 42.1829C82.8305 39.9016 82.4516 37.6417 81.8083 35.467L81.4535 34.2653H90.1596C90.3981 34.2653 90.5919 34.0734 90.5919 33.8372V23.8899C91.9594 23.6818 93.0108 22.5083 93.0108 21.096C93.0108 19.5371 91.7303 18.2689 90.1562 18.2689C88.582 18.2689 87.3015 19.5371 87.3015 21.096C87.3015 22.51 88.3555 23.6852 89.7265 23.8907V33.4082H81.1194L80.88 32.8215C79.435 29.2823 77.3029 26.1021 74.5429 23.3697C71.9845 20.8359 69.03 18.8309 65.7594 17.411L65.1927 17.1645V8.48108H75.0097C75.1991 9.85839 76.3944 10.9236 77.8368 10.9236C79.4109 10.9236 80.6914 9.65542 80.6914 8.09646C80.6914 6.5375 79.4109 5.26935 77.8368 5.26935C76.4254 5.26935 75.2516 6.28932 75.0235 7.62314H64.7604C64.5219 7.62314 64.3282 7.81502 64.3282 8.05126V16.8012L63.0898 16.4047C60.6597 15.6269 58.1228 15.174 55.548 15.058L54.6438 15.0171V6.61937C56.013 6.41213 57.0653 5.23779 57.0653 3.82467C57.0653 2.26571 55.7848 0.997559 54.2107 0.997559C52.6365 0.997559 51.356 2.26571 51.356 3.82467C51.356 5.23779 52.4083 6.41213 53.7775 6.61937V15.0171L52.8733 15.058C50.4389 15.1681 48.0346 15.5791 45.7285 16.2801L44.5031 16.6528V8.05126C44.5031 7.81502 44.3094 7.62314 44.0708 7.62314H34.2625C34.0317 6.29188 32.8588 5.27532 31.45 5.27532C29.8759 5.27532 28.5954 6.54347 28.5954 8.10243C28.5954 9.66139 29.8759 10.9295 31.45 10.9295C32.8942 10.9295 34.0911 9.86095 34.278 8.48023H43.6377V16.9991L43.0573 17.2404C39.6291 18.6689 36.5402 20.7302 33.8767 23.368C31.1168 26.1013 28.9846 29.2814 27.5396 32.8198L27.3002 33.4065H19.1031V23.5957C20.4826 23.397 21.5453 22.2192 21.5453 20.7984C21.5453 19.2394 20.2648 17.9713 18.6906 17.9713C17.1164 17.9713 15.8359 19.2394 15.8359 20.7984C15.8359 22.2047 16.8779 23.3731 18.2368 23.5888V33.8338C18.2368 34.07 18.4305 34.2619 18.6691 34.2619H26.9652L26.6105 35.4635C25.968 37.6391 25.5891 39.8982 25.4841 42.1795L25.4428 43.075H15.6783C15.488 41.6977 14.2928 40.6334 12.8512 40.6334C11.2771 40.6334 9.99658 41.9015 9.99658 43.4605C9.99658 45.0194 11.2771 46.2876 12.8512 46.2876C14.2626 46.2876 15.4372 45.2676 15.6654 43.9329H25.4428L25.4841 44.8284C25.6021 47.4014 26.0662 49.9351 26.8636 52.3588L27.2675 53.5877H18.6691C18.4305 53.5877 18.2368 53.7796 18.2368 54.0159V64.3256C16.871 64.5354 15.8222 65.7081 15.8222 67.1186C15.8222 68.6776 17.1027 69.9457 18.6768 69.9457C20.251 69.9457 21.5315 68.6776 21.5315 67.1186C21.5315 65.7029 20.4757 64.5277 19.1031 64.3231V54.444H27.6361L27.8858 55.0034C29.3187 58.2169 31.3338 61.1224 33.8767 63.6408C36.5402 66.2786 39.6291 68.3407 43.0573 69.7683L43.6377 70.0097V78.294H33.4599C33.2524 76.9363 32.0657 75.8916 30.638 75.8916C29.0638 75.8916 27.7833 77.1598 27.7833 78.7187C27.7833 80.2777 29.0638 81.5458 30.638 81.5458C32.0632 81.5458 33.2481 80.5054 33.4591 79.152H44.0708C44.3094 79.152 44.5031 78.9601 44.5031 78.7238V70.3568L45.7285 70.7295C48.0346 71.4314 50.4389 71.8424 52.8733 71.9516L53.7775 71.9925V80.3775C52.4083 80.5847 51.356 81.759 51.356 83.1722C51.356 84.7311 52.6365 85.9993 54.2107 85.9993C55.7848 85.9993 57.0653 84.7311 57.0653 83.1722C57.0653 81.759 56.013 80.5847 54.6438 80.3775V71.9925L55.548 71.9516C58.1228 71.8356 60.6606 71.3827 63.0898 70.605L64.3282 70.2084V78.7238C64.3282 78.9601 64.5219 79.152 64.7604 79.152H75.5289C75.733 80.5131 76.9214 81.5612 78.3517 81.5612C79.9259 81.5612 81.2064 80.293 81.2064 78.7341C81.2064 77.1751 79.9259 75.907 78.3517 75.907C76.9291 75.907 75.7459 76.9431 75.5324 78.294H65.1936V69.8451L65.7602 69.5986C69.0308 68.1778 71.9854 66.1728 74.5438 63.6391C77.0859 61.1216 79.1018 58.2152 80.5347 55.0017L80.7844 54.4423H89.7282V64.5994C88.3573 64.8049 87.3024 65.9801 87.3024 67.3941C87.3024 68.953 88.5829 70.2212 90.157 70.2212C91.7312 70.2212 93.0117 68.953 93.0117 67.3941C93.0117 65.9827 91.9611 64.8092 90.5945 64.6002V54.0141C90.5945 53.7779 90.4007 53.586 90.1622 53.586H81.153L81.5569 52.3571C82.3543 49.9334 82.8184 47.3997 82.9364 44.8267L82.9778 43.9312H93.3286C93.5456 45.2787 94.7262 46.3123 96.1471 46.3123C97.7212 46.3123 99.0018 45.0442 99.0018 43.4852C99.0018 41.9262 97.7212 40.6581 96.1471 40.6581L96.1454 40.6623ZM88.1644 21.096C88.1644 20.0078 89.0582 19.1218 90.1579 19.1218C91.2576 19.1218 92.1514 20.007 92.1514 21.096C92.1514 22.1851 91.2576 23.0703 90.1579 23.0703C89.0582 23.0703 88.1644 22.1851 88.1644 21.096ZM77.8376 6.12302C78.9364 6.12302 79.8312 7.00825 79.8312 8.09731C79.8312 9.18636 78.9373 10.0716 77.8376 10.0716C76.738 10.0716 75.8441 9.18636 75.8441 8.09731C75.8441 7.00825 76.738 6.12302 77.8376 6.12302ZM31.45 10.0776C30.3512 10.0776 29.4565 9.19233 29.4565 8.10328C29.4565 7.01422 30.3504 6.12899 31.45 6.12899C32.5497 6.12899 33.4436 7.01422 33.4436 8.10328C33.4436 9.19233 32.5497 10.0776 31.45 10.0776ZM16.6997 20.801C16.6997 19.7128 17.5935 18.8267 18.6932 18.8267C19.7929 18.8267 20.6867 19.7119 20.6867 20.801C20.6867 21.89 19.7929 22.7752 18.6932 22.7752C17.5935 22.7752 16.6997 21.89 16.6997 20.801ZM12.8547 45.4373C11.7559 45.4373 10.8612 44.5521 10.8612 43.463C10.8612 42.374 11.755 41.4887 12.8547 41.4887C13.9544 41.4887 14.8482 42.374 14.8482 43.463C14.8482 44.5521 13.9544 45.4373 12.8547 45.4373ZM20.6721 67.1212C20.6721 68.2094 19.7782 69.0955 18.6785 69.0955C17.5789 69.0955 16.685 68.2102 16.685 67.1212C16.685 66.0321 17.5789 65.1469 18.6785 65.1469C19.7782 65.1469 20.6721 66.0321 20.6721 67.1212ZM30.6388 80.6956C29.54 80.6956 28.6453 79.8103 28.6453 78.7213C28.6453 77.6322 29.5392 76.747 30.6388 76.747C31.7385 76.747 32.6324 77.6322 32.6324 78.7213C32.6324 79.8103 31.7385 80.6956 30.6388 80.6956ZM78.3526 76.7632C79.4514 76.7632 80.3461 77.6484 80.3461 78.7375C80.3461 79.8265 79.4523 80.7118 78.3526 80.7118C77.2529 80.7118 76.3591 79.8265 76.3591 78.7375C76.3591 77.6484 77.2529 76.7632 78.3526 76.7632ZM92.1497 67.3984C92.1497 68.4866 91.2558 69.3726 90.1562 69.3726C89.0565 69.3726 88.1626 68.4874 88.1626 67.3984C88.1626 66.3093 89.0565 65.4241 90.1562 65.4241C91.2558 65.4241 92.1497 66.3093 92.1497 67.3984ZM52.218 3.82722C52.218 2.73902 53.1119 1.85294 54.2115 1.85294C55.3112 1.85294 56.2051 2.73817 56.2051 3.82722C56.2051 4.91628 55.3112 5.80151 54.2115 5.80151C53.1119 5.80151 52.218 4.91628 52.218 3.82722ZM56.2042 83.173C56.2042 84.2612 55.3104 85.1473 54.2107 85.1473C53.111 85.1473 52.2172 84.2621 52.2172 83.173C52.2172 82.084 53.111 81.1987 54.2107 81.1987C55.3104 81.1987 56.2042 82.084 56.2042 83.173ZM54.2107 71.1277C38.8317 71.1277 26.3203 58.7371 26.3203 43.5065C26.3203 28.276 38.8317 15.8853 54.2107 15.8853C69.5897 15.8853 82.1011 28.276 82.1011 43.5065C82.1011 58.7371 69.5897 71.1277 54.2107 71.1277ZM96.1454 45.4629C95.0466 45.4629 94.1518 44.5777 94.1518 43.4886C94.1518 42.3996 95.0457 41.5143 96.1454 41.5143C97.245 41.5143 98.1389 42.3996 98.1389 43.4886C98.1389 44.5777 97.245 45.4629 96.1454 45.4629Z" fill="white"/>
</svg>
